img/icono-folder.svg

<?xml version="1.0"?><svg xmlns="http://www.w3.org/2000/svg"  viewBox="0 0 50 50" width="30px" height="30px">    <path d="M 5 4 C 3.346 4 2 5.346 2 7 L 2 13 L 3 13 L 47 13 L 48 13 L 48 11 C 48 9.346 46.654 8 45 8 L 18.044922 8.0058594 C 17.765922 7.9048594 17.188906 6.9861875 16.878906 6.4921875 C 16.111906 5.2681875 15.317 4 14 4 L 5 4 z M 3 15 C 2.448 15 2 15.448 2 16 L 2 43 C 2 44.657 3.343 46 5 46 L 45 46 C 46.657 46 48 44.657 48 43 L 48 16 C 48 15.448 47.552 15 47 15 L 3 15 z"/></svg>

<?xml version="1.0" encoding="iso-8859-1"?><!-- Generator: Adobe Illustrator 22.0.1, SVG Export Plug-In . SVG Version: 6.00 Build 0)  --><svg xmlns="http://www.w3.org/2000/svg" xmlns:xlink="http://www.w3.org/1999/xlink" viewBox="0 0 50 50" width="30px" height="30px"><path d="M45,8L18.044,8.006c-0.279-0.101-0.855-1.02-1.165-1.514C16.112,5.268,15.317,4,14,4H5C3.346,4,2,5.346,2,7v6h1h44h1v-2C48,9.346,46.654,8,45,8z"/><path d="M48,43V16c0-0.552-0.448-1-1-1H3c-0.552,0-1,0.448-1,1v27c0,1.657,1.343,3,3,3h40C46.657,46,48,44.657,48,43z"/></svg>
